content/img/illus-ce-flavour.svg

<?xml version="1.0" encoding="UTF-8"?>
<svg width="90px" height="76px" viewBox="0 0 90 76" version="1.1" xmlns="http://www.w3.org/2000/svg" xmlns:xlink="http://www.w3.org/1999/xlink">
    <title>illus-ce-flavour</title>
    <g id="illus-ce-flavour" stroke="none" stroke-width="1" fill="none" fill-rule="evenodd">
        <path d="M42.098759,62 C51.1933562,62 62.4767359,60.385879 67.9889745,53.6058259 C72.5390626,48.0092179 78,31.3075771 78,23.3320135 C78,5.69439326 59.7329154,4.10034759 43.3533481,1.57261064 C33.9415676,0.120160453 21.2977405,-2.19750142 15.7837068,4.72279856 C11.3504035,10.286745 12.0386314,22.2032976 12.0386314,30.0639862 C12.0386314,47.7016065 25.497009,62 42.098759,62 Z" id="Oval" fill="#9093CC"></path>
        <path d="M41.4652218,38.973203 C43.2173023,38.8160017 44.12726,38.1911751 43.9856289,36.9534559 C43.8447075,35.722184 42.8117095,35.2718424 41.7388335,35.4896743 C40.9600049,35.6478358 39.7254879,35.8832258 38.5129676,35.1999631 C35.9823425,33.7737672 35.981349,29.1246731 37.9450245,27.1807834 C39.2479446,25.8912125 40.496937,26.2599359 41.4186738,26.3404568 C42.4816158,26.4334606 43.7135784,26.0670694 43.7615455,24.8215313 C43.7994367,23.8375835 42.7922673,23.1390946 41.8476824,23.0598081 C38.4763537,22.7769563 34.350464,23.2961592 33.2208218,29.0966901 C32.7695326,31.4136926 32.8508498,34.1252069 35.0044073,36.7035256 C36.5369456,38.5383623 39.593649,39.1408295 41.4652218,38.973203 Z M48.7043123,38.9993247 C50.418824,38.9760469 52.8476275,38.6936289 54.7490209,38.2280741 C55.3475173,38.0815365 56.0598311,37.474913 55.9959985,36.4577036 C55.9189774,35.2302935 55.0171442,34.8721527 54.5072749,34.8860354 C53.0174963,34.9264208 48.9298369,35.5096264 48.9298369,35.5096264 L48.8613882,32.3667104 C48.8613882,32.3667104 51.8695647,32.1750197 53.1646803,31.8764756 C54.7575934,31.5093604 54.5292995,28.6459173 52.3385494,28.6652689 C51.2971815,28.6743838 48.920209,28.8178364 48.920209,28.8178364 L48.8656084,26.6402456 C48.8656084,26.6402456 52.6958272,26.5809293 53.9042941,26.4917448 C54.885918,26.4192471 55.9959983,25.9051735 55.8084569,24.47836 C55.6546785,23.3085833 54.3734107,23.0557533 53.3491879,23.0386454 C52.2012566,23.0194344 49.3215366,22.90585 47.5144414,23.1889691 C46.9121202,23.2833421 46.0666022,24.1586412 46.0428629,25.1803379 L46,34.6186216 C46.1105201,37.5737732 46.0150349,39.0360642 48.7043123,38.9993247 Z" id="CE" fill="#FFFFFF" fill-rule="nonzero"></path>
    </g>
</svg>

<svg width="90" height="76" xmlns="http://www.w3.org/2000/svg">
  <g fill="none" fill-rule="evenodd">
    <path d="M42.099 62c9.094 0 20.378-1.614 25.89-8.394C72.539 48.009 78 31.308 78 23.332 78 5.694 59.733 4.1 43.353 1.572c-9.411-1.452-22.055-3.77-27.57 3.15-4.433 5.565-3.744 17.481-3.744 25.342C12.039 47.702 25.497 62 42.099 62z" fill="#9093CC"/>
    <path d="M41.465 38.973c1.752-.157 2.662-.782 2.52-2.02-.14-1.23-1.173-1.681-2.246-1.463-.779.158-2.014.393-3.226-.29-2.53-1.426-2.532-6.075-.568-8.02 1.303-1.289 2.552-.92 3.474-.84 1.063.093 2.295-.273 2.343-1.518.037-.984-.97-1.683-1.914-1.762-3.372-.283-7.498.236-8.627 6.037-.451 2.317-.37 5.028 1.783 7.607 1.533 1.834 4.59 2.437 6.461 2.27zm7.24.026c1.714-.023 4.143-.305 6.044-.77a1.68 1.68 0 001.247-1.771c-.077-1.228-.979-1.586-1.489-1.572-1.49.04-5.577.624-5.577.624l-.069-3.143s3.009-.192 4.304-.49c1.593-.368 1.364-3.231-.826-3.212-1.042.01-3.419.153-3.419.153l-.054-2.178s3.83-.06 5.038-.148c.982-.073 2.092-.587 1.904-2.014-.153-1.17-1.435-1.422-2.459-1.44-1.148-.019-4.027-.132-5.835.151-.602.094-1.447.97-1.471 1.991L46 34.62c.11 2.955.015 4.417 2.704 4.38z" fill="#FFF" fill-rule="nonzero"/>
  </g>
</svg>
